public/library/optimistic-text-dark.svg

<svg width="583" height="122" viewBox="0 0 583 122" fill="none" xmlns="http://www.w3.org/2000/svg">
<path d="M172.864 65.116C167.899 65.116 163.339 63.9507 159.184 61.62C155.03 59.2893 151.736 56.072 149.304 51.968C146.872 47.8133 145.656 43.1267 145.656 37.908C145.656 32.74 146.872 28.104 149.304 24C151.736 19.8453 155.03 16.6027 159.184 14.272C163.339 11.9413 167.899 10.776 172.864 10.776C177.88 10.776 182.44 11.9413 186.544 14.272C190.699 16.6027 193.967 19.8453 196.348 24C198.78 28.104 199.996 32.74 199.996 37.908C199.996 43.1267 198.78 47.8133 196.348 51.968C193.967 56.072 190.699 59.2893 186.544 61.62C182.39 63.9507 177.83 65.116 172.864 65.116ZM172.864 55.616C176.056 55.616 178.868 54.9067 181.3 53.488C183.732 52.0187 185.632 49.9413 187 47.256C188.368 44.5707 189.052 41.4547 189.052 37.908C189.052 34.3613 188.368 31.2707 187 28.636C185.632 25.9507 183.732 23.8987 181.3 22.48C178.868 21.0613 176.056 20.352 172.864 20.352C169.672 20.352 166.835 21.0613 164.352 22.48C161.92 23.8987 160.02 25.9507 158.652 28.636C157.284 31.2707 156.6 34.3613 156.6 37.908C156.6 41.4547 157.284 44.5707 158.652 47.256C160.02 49.9413 161.92 52.0187 164.352 53.488C166.835 54.9067 169.672 55.616 172.864 55.616Z" fill="white"/>
<path d="M246.596 27.952C246.596 30.7893 245.912 33.4493 244.544 35.932C243.227 38.4147 241.124 40.416 238.236 41.936C235.399 43.456 231.801 44.216 227.444 44.216H218.552V64.584H207.912V11.536H227.444C231.548 11.536 235.044 12.2453 237.932 13.664C240.82 15.0827 242.973 17.0333 244.392 19.516C245.861 21.9987 246.596 24.8107 246.596 27.952ZM226.988 35.628C229.927 35.628 232.105 34.9693 233.524 33.652C234.943 32.284 235.652 30.384 235.652 27.952C235.652 22.784 232.764 20.2 226.988 20.2H218.552V35.628H226.988Z" fill="white"/>
<path d="M330.096 11.536V64.584H319.456V30.08L305.244 64.584H297.188L282.9 30.08V64.584H272.26V11.536H284.344L301.216 50.98L318.088 11.536H330.096Z" fill="white"/>
<path d="M337.879 43.38C337.879 39.124 338.715 35.3493 340.387 32.056C342.11 28.7627 344.415 26.2293 347.303 24.456C350.242 22.6827 353.51 21.796 357.107 21.796C360.249 21.796 362.985 22.4293 365.315 23.696C367.697 24.9627 369.597 26.5587 371.015 28.484V22.48H381.731V64.584H371.015V58.428C369.647 60.404 367.747 62.0507 365.315 63.368C362.934 64.6347 360.173 65.268 357.031 65.268C353.485 65.268 350.242 64.356 347.303 62.532C344.415 60.708 342.11 58.1493 340.387 54.856C338.715 51.512 337.879 47.6867 337.879 43.38ZM371.015 43.532C371.015 40.948 370.509 38.744 369.495 36.92C368.482 35.0453 367.114 33.6267 365.391 32.664C363.669 31.6507 361.819 31.144 359.843 31.144C357.867 31.144 356.043 31.6253 354.371 32.588C352.699 33.5507 351.331 34.9693 350.267 36.844C349.254 38.668 348.747 40.8467 348.747 43.38C348.747 45.9133 349.254 48.1427 350.267 50.068C351.331 51.9427 352.699 53.3867 354.371 54.4C356.094 55.4133 357.918 55.92 359.843 55.92C361.819 55.92 363.669 55.4387 365.391 54.476C367.114 53.4627 368.482 52.044 369.495 50.22C370.509 48.3453 371.015 46.116 371.015 43.532Z" fill="white"/>
<path d="M397.519 17.464C395.644 17.464 394.074 16.8813 392.807 15.716C391.591 14.5 390.983 13.0053 390.983 11.232C390.983 9.45867 391.591 7.98933 392.807 6.824C394.074 5.608 395.644 5 397.519 5C399.394 5 400.939 5.608 402.155 6.824C403.422 7.98933 404.055 9.45867 404.055 11.232C404.055 13.0053 403.422 14.5 402.155 15.716C400.939 16.8813 399.394 17.464 397.519 17.464ZM402.763 22.48V64.584H392.123V22.48H402.763Z" fill="white"/>
<path d="M436.607 21.872C441.623 21.872 445.677 23.468 448.767 26.66C451.858 29.8013 453.403 34.2093 453.403 39.884V64.584H442.763V41.328C442.763 37.984 441.927 35.4253 440.255 33.652C438.583 31.828 436.303 30.916 433.415 30.916C430.477 30.916 428.146 31.828 426.423 33.652C424.751 35.4253 423.915 37.984 423.915 41.328V64.584H413.275V22.48H423.915V27.724C425.334 25.9 427.133 24.4813 429.311 23.468C431.541 22.404 433.973 21.872 436.607 21.872Z" fill="white"/>
<path d="M486.854 21.872C491.87 21.872 495.923 23.468 499.013 26.66C502.104 29.8013 503.65 34.2093 503.65 39.884V64.584H493.009V41.328C493.009 37.984 492.173 35.4253 490.501 33.652C488.829 31.828 486.549 30.916 483.661 30.916C480.723 30.916 478.392 31.828 476.669 33.652C474.997 35.4253 474.161 37.984 474.161 41.328V64.584H463.522V22.48H474.161V27.724C475.58 25.9 477.379 24.4813 479.557 23.468C481.787 22.404 484.219 21.872 486.854 21.872Z" fill="white"/>
<path d="M552.908 42.62C552.908 44.14 552.806 45.508 552.604 46.724H521.824C522.077 49.764 523.141 52.1453 525.016 53.868C526.89 55.5907 529.196 56.452 531.932 56.452C535.884 56.452 538.696 54.7547 540.368 51.36H551.844C550.628 55.4133 548.297 58.7573 544.852 61.392C541.406 63.976 537.176 65.268 532.16 65.268C528.106 65.268 524.458 64.3813 521.216 62.608C518.024 60.784 515.516 58.2253 513.692 54.932C511.918 51.6387 511.032 47.8387 511.032 43.532C511.032 39.1747 511.918 35.3493 513.692 32.056C515.465 28.7627 517.948 26.2293 521.14 24.456C524.332 22.6827 528.005 21.796 532.16 21.796C536.162 21.796 539.734 22.6573 542.876 24.38C546.068 26.1027 548.525 28.56 550.248 31.752C552.021 34.8933 552.908 38.516 552.908 42.62ZM541.888 39.58C541.837 36.844 540.849 34.6653 538.924 33.044C536.998 31.372 534.642 30.536 531.856 30.536C529.221 30.536 526.992 31.3467 525.168 32.968C523.394 34.5387 522.305 36.7427 521.9 39.58H541.888Z" fill="white"/>
<path d="M573.062 31.22V51.588C573.062 53.0067 573.391 54.0453 574.05 54.704C574.759 55.312 575.925 55.616 577.546 55.616H582.486V64.584H575.798C566.83 64.584 562.346 60.2267 562.346 51.512V31.22H557.33V22.48H562.346V12.068H573.062V22.48H582.486V31.22H573.062Z" fill="white"/>
<path d="M158.465 105.74H150.343L149.041 109.584H143.492L151.366 87.8221H157.504L165.378 109.584H159.767L158.465 105.74ZM157.101 101.648L154.404 93.6811L151.738 101.648H157.101Z" fill="#CECECF"/>
<path d="M182.218 109.801C180.627 109.801 179.201 109.543 177.94 109.026C176.679 108.509 175.667 107.745 174.902 106.732C174.158 105.719 173.765 104.5 173.724 103.074H179.366C179.449 103.88 179.728 104.5 180.203 104.934C180.678 105.347 181.298 105.554 182.063 105.554C182.848 105.554 183.468 105.378 183.923 105.027C184.378 104.655 184.605 104.149 184.605 103.508C184.605 102.971 184.419 102.526 184.047 102.175C183.696 101.824 183.251 101.534 182.714 101.307C182.197 101.08 181.453 100.821 180.482 100.532C179.077 100.098 177.93 99.6641 177.041 99.2301C176.152 98.7961 175.388 98.1554 174.747 97.3081C174.106 96.4607 173.786 95.3551 173.786 93.9911C173.786 91.9657 174.52 90.3847 175.987 89.2481C177.454 88.0907 179.366 87.5121 181.722 87.5121C184.119 87.5121 186.052 88.0907 187.519 89.2481C188.986 90.3847 189.772 91.9761 189.875 94.0221H184.14C184.099 93.3194 183.84 92.7717 183.365 92.3791C182.89 91.9657 182.28 91.7591 181.536 91.7591C180.895 91.7591 180.379 91.9347 179.986 92.2861C179.593 92.6167 179.397 93.1024 179.397 93.7431C179.397 94.4457 179.728 94.9934 180.389 95.3861C181.05 95.7787 182.084 96.2024 183.489 96.6571C184.894 97.1324 186.031 97.5871 186.899 98.0211C187.788 98.4551 188.552 99.0854 189.193 99.9121C189.834 100.739 190.154 101.803 190.154 103.105C190.154 104.345 189.834 105.471 189.193 106.484C188.573 107.497 187.664 108.303 186.465 108.902C185.266 109.501 183.851 109.801 182.218 109.801Z" fill="#CECECF"/>
<path d="M192.362 100.935C192.362 99.1371 192.724 97.5664 193.447 96.2231C194.191 94.8797 195.214 93.8464 196.516 93.1231C197.839 92.3997 199.348 92.0381 201.042 92.0381C203.212 92.0381 205.021 92.6064 206.467 93.7431C207.935 94.8797 208.896 96.4814 209.35 98.5481H203.708C203.233 97.2254 202.313 96.5641 200.949 96.5641C199.978 96.5641 199.203 96.9464 198.624 97.7111C198.046 98.4551 197.756 99.5297 197.756 100.935C197.756 102.34 198.046 103.425 198.624 104.19C199.203 104.934 199.978 105.306 200.949 105.306C202.313 105.306 203.233 104.645 203.708 103.322H209.35C208.896 105.347 207.935 106.939 206.467 108.096C205 109.253 203.192 109.832 201.042 109.832C199.348 109.832 197.839 109.47 196.516 108.747C195.214 108.024 194.191 106.99 193.447 105.647C192.724 104.304 192.362 102.733 192.362 100.935Z" fill="#CECECF"/>
<path d="M211.132 100.904C211.132 99.1267 211.462 97.5664 212.124 96.2231C212.806 94.8797 213.725 93.8464 214.883 93.1231C216.04 92.3997 217.332 92.0381 218.758 92.0381C219.977 92.0381 221.041 92.2861 221.951 92.7821C222.881 93.2781 223.594 93.9291 224.09 94.7351V92.2861H229.391V109.584H224.09V107.135C223.573 107.941 222.85 108.592 221.92 109.088C221.01 109.584 219.946 109.832 218.727 109.832C217.321 109.832 216.04 109.47 214.883 108.747C213.725 108.003 212.806 106.959 212.124 105.616C211.462 104.252 211.132 102.681 211.132 100.904ZM224.09 100.935C224.09 99.6124 223.718 98.5687 222.974 97.8041C222.25 97.0394 221.362 96.6571 220.308 96.6571C219.254 96.6571 218.355 97.0394 217.611 97.8041C216.887 98.5481 216.526 99.5814 216.526 100.904C216.526 102.227 216.887 103.281 217.611 104.066C218.355 104.831 219.254 105.213 220.308 105.213C221.362 105.213 222.25 104.831 222.974 104.066C223.718 103.301 224.09 102.258 224.09 100.935Z" fill="#CECECF"/>
<path d="M243.766 92.1001C245.791 92.1001 247.403 92.7614 248.602 94.0841C249.821 95.3861 250.431 97.1841 250.431 99.4781V109.584H245.161V100.191C245.161 99.0337 244.861 98.1347 244.262 97.4941C243.662 96.8534 242.856 96.5331 241.844 96.5331C240.831 96.5331 240.025 96.8534 239.426 97.4941C238.826 98.1347 238.527 99.0337 238.527 100.191V109.584H233.226V92.2861H238.527V94.5801C239.064 93.8154 239.787 93.2161 240.697 92.7821C241.606 92.3274 242.629 92.1001 243.766 92.1001Z" fill="#CECECF"/>
<path d="M270.976 109.801C268.93 109.801 267.049 109.326 265.334 108.375C263.639 107.424 262.285 106.102 261.273 104.407C260.281 102.692 259.785 100.77 259.785 98.6411C259.785 96.5124 260.281 94.6007 261.273 92.9061C262.285 91.2114 263.639 89.8887 265.334 88.9381C267.049 87.9874 268.93 87.5121 270.976 87.5121C273.022 87.5121 274.892 87.9874 276.587 88.9381C278.302 89.8887 279.645 91.2114 280.617 92.9061C281.609 94.6007 282.105 96.5124 282.105 98.6411C282.105 100.77 281.609 102.692 280.617 104.407C279.625 106.102 278.281 107.424 276.587 108.375C274.892 109.326 273.022 109.801 270.976 109.801ZM270.976 104.965C272.712 104.965 274.096 104.386 275.13 103.229C276.184 102.072 276.711 100.542 276.711 98.6411C276.711 96.7191 276.184 95.1897 275.13 94.0531C274.096 92.8957 272.712 92.3171 270.976 92.3171C269.219 92.3171 267.814 92.8854 266.76 94.0221C265.726 95.1587 265.21 96.6984 265.21 98.6411C265.21 100.563 265.726 102.103 266.76 103.26C267.814 104.397 269.219 104.965 270.976 104.965Z" fill="#CECECF"/>
<path d="M290.355 95.1691C290.975 94.2184 291.75 93.4744 292.68 92.9371C293.61 92.3791 294.643 92.1001 295.78 92.1001V97.7111H294.323C293 97.7111 292.008 98.0004 291.347 98.5791C290.686 99.1371 290.355 100.129 290.355 101.555V109.584H285.054V92.2861H290.355V95.1691Z" fill="#CECECF"/>
<path d="M300.98 90.4881C300.05 90.4881 299.285 90.2194 298.686 89.6821C298.107 89.1241 297.818 88.4421 297.818 87.6361C297.818 86.8094 298.107 86.1274 298.686 85.5901C299.285 85.0321 300.05 84.7531 300.98 84.7531C301.889 84.7531 302.633 85.0321 303.212 85.5901C303.811 86.1274 304.111 86.8094 304.111 87.6361C304.111 88.4421 303.811 89.1241 303.212 89.6821C302.633 90.2194 301.889 90.4881 300.98 90.4881ZM303.615 92.2861V109.584H298.314V92.2861H303.615Z" fill="#CECECF"/>
<path d="M314.028 92.0381C315.248 92.0381 316.312 92.2861 317.221 92.7821C318.151 93.2781 318.864 93.9291 319.36 94.7351V92.2861H324.661V109.553C324.661 111.144 324.341 112.581 323.7 113.862C323.08 115.164 322.119 116.197 320.817 116.962C319.536 117.727 317.934 118.109 316.012 118.109C313.45 118.109 311.373 117.499 309.781 116.28C308.19 115.081 307.281 113.449 307.053 111.382H312.292C312.458 112.043 312.85 112.56 313.47 112.932C314.09 113.325 314.855 113.521 315.764 113.521C316.86 113.521 317.728 113.201 318.368 112.56C319.03 111.94 319.36 110.938 319.36 109.553V107.104C318.844 107.91 318.131 108.571 317.221 109.088C316.312 109.584 315.248 109.832 314.028 109.832C312.602 109.832 311.311 109.47 310.153 108.747C308.996 108.003 308.076 106.959 307.394 105.616C306.733 104.252 306.402 102.681 306.402 100.904C306.402 99.1267 306.733 97.5664 307.394 96.2231C308.076 94.8797 308.996 93.8464 310.153 93.1231C311.311 92.3997 312.602 92.0381 314.028 92.0381ZM319.36 100.935C319.36 99.6124 318.988 98.5687 318.244 97.8041C317.521 97.0394 316.632 96.6571 315.578 96.6571C314.524 96.6571 313.625 97.0394 312.881 97.8041C312.158 98.5481 311.796 99.5814 311.796 100.904C311.796 102.227 312.158 103.281 312.881 104.066C313.625 104.831 314.524 105.213 315.578 105.213C316.632 105.213 317.521 104.831 318.244 104.066C318.988 103.301 319.36 102.258 319.36 100.935Z" fill="#CECECF"/>
<path d="M331.162 90.4881C330.232 90.4881 329.468 90.2194 328.868 89.6821C328.29 89.1241 328 88.4421 328 87.6361C328 86.8094 328.29 86.1274 328.868 85.5901C329.468 85.0321 330.232 84.7531 331.162 84.7531C332.072 84.7531 332.816 85.0321 333.394 85.5901C333.994 86.1274 334.293 86.8094 334.293 87.6361C334.293 88.4421 333.994 89.1241 333.394 89.6821C332.816 90.2194 332.072 90.4881 331.162 90.4881ZM333.797 92.2861V109.584H328.496V92.2861H333.797Z" fill="#CECECF"/>
<path d="M348.179 92.1001C350.204 92.1001 351.816 92.7614 353.015 94.0841C354.234 95.3861 354.844 97.1841 354.844 99.4781V109.584H349.574V100.191C349.574 99.0337 349.274 98.1347 348.675 97.4941C348.076 96.8534 347.27 96.5331 346.257 96.5331C345.244 96.5331 344.438 96.8534 343.839 97.4941C343.24 98.1347 342.94 99.0337 342.94 100.191V109.584H337.639V92.2861H342.94V94.5801C343.477 93.8154 344.201 93.2161 345.11 92.7821C346.019 92.3274 347.042 92.1001 348.179 92.1001Z" fill="#CECECF"/>
<path d="M357.474 100.904C357.474 99.1267 357.804 97.5664 358.466 96.2231C359.148 94.8797 360.067 93.8464 361.225 93.1231C362.382 92.3997 363.674 92.0381 365.1 92.0381C366.319 92.0381 367.383 92.2861 368.293 92.7821C369.223 93.2781 369.936 93.9291 370.432 94.7351V92.2861H375.733V109.584H370.432V107.135C369.915 107.941 369.192 108.592 368.262 109.088C367.352 109.584 366.288 109.832 365.069 109.832C363.663 109.832 362.382 109.47 361.225 108.747C360.067 108.003 359.148 106.959 358.466 105.616C357.804 104.252 357.474 102.681 357.474 100.904ZM370.432 100.935C370.432 99.6124 370.06 98.5687 369.316 97.8041C368.592 97.0394 367.704 96.6571 366.65 96.6571C365.596 96.6571 364.697 97.0394 363.953 97.8041C363.229 98.5481 362.868 99.5814 362.868 100.904C362.868 102.227 363.229 103.281 363.953 104.066C364.697 104.831 365.596 105.213 366.65 105.213C367.704 105.213 368.592 104.831 369.316 104.066C370.06 103.301 370.432 102.258 370.432 100.935Z" fill="#CECECF"/>
<path d="M384.869 86.6441V109.584H379.568V86.6441H384.869Z" fill="#CECECF"/>
<path d="M25.2228 57.583C25.2229 56.9056 25.3568 56.2348 25.6169 55.6093C25.877 54.9837 26.258 54.4157 26.7382 53.9378C27.2184 53.4599 27.7883 53.0816 28.4151 52.8246C29.0419 52.5676 29.7133 52.4369 30.3908 52.44L38.9588 52.468C40.3249 52.468 41.6351 53.0107 42.6011 53.9767C43.5671 54.9427 44.1098 56.2529 44.1098 57.619V90.0191C45.0748 89.7331 46.3098 89.428 47.6688 89.108C48.6103 88.8865 49.4494 88.3535 50.05 87.5953C50.6506 86.8371 50.9776 85.8983 50.9778 84.931V44.744C50.9778 43.3778 51.5204 42.0675 52.4864 41.1014C53.4524 40.1352 54.7626 39.5923 56.1288 39.592H64.7228C66.089 39.5923 67.3992 40.1352 68.3651 41.1014C69.3311 42.0675 69.8738 43.3778 69.8738 44.744V82.044C69.8738 82.044 72.0238 81.174 74.1168 80.29C74.8945 79.9611 75.5582 79.4104 76.025 78.7067C76.4918 78.003 76.7411 77.1775 76.7418 76.333V31.866C76.7418 30.5001 77.2843 29.1901 78.2501 28.2241C79.2159 27.2581 80.5258 26.7153 81.8918 26.715H90.4768C91.842 26.7164 93.1509 27.2596 94.1158 28.2255C95.0808 29.1914 95.6228 30.5008 95.6228 31.866V68.483C103.066 63.089 110.609 56.601 116.595 48.8C117.463 47.6677 118.038 46.338 118.268 44.9295C118.497 43.521 118.375 42.0776 117.911 40.728C115.14 32.7562 110.735 25.4505 104.979 19.2786C99.2225 13.1067 92.241 8.20438 84.4813 4.88543C76.7216 1.56649 68.3544 -0.0960273 59.9153 0.00428347C51.4762 0.104594 43.1509 1.96552 35.4723 5.46797C27.7936 8.97042 20.9307 14.0373 15.3226 20.3443C9.71457 26.6513 5.48488 34.0596 2.90423 42.0951C0.323578 50.1305 -0.551199 58.6163 0.33587 67.0093C1.22294 75.4022 3.85232 83.5176 8.05576 90.836C8.7881 92.0985 9.86553 93.1258 11.1615 93.7972C12.4574 94.4685 13.918 94.7561 15.3718 94.626C16.9958 94.483 19.0178 94.281 21.4218 93.999C22.468 93.88 23.434 93.3803 24.1356 92.5951C24.8373 91.8099 25.2257 90.7941 25.2268 89.741V57.583" fill="white"/>
<path d="M25.0391 109.544C34.0883 116.127 44.7823 120.079 55.9379 120.961C67.0934 121.844 78.2758 119.623 88.2476 114.545C98.2195 109.467 106.592 101.729 112.439 92.1878C118.286 82.6465 121.38 71.6735 121.378 60.4831C121.378 59.0831 121.313 57.7051 121.22 56.3311C99.057 89.3861 58.1351 104.839 25.0391 109.544Z" fill="#FF0823"/>
</svg>

<svg xmlns="http://www.w3.org/2000/svg" width="583" height="122" fill="none" viewBox="0 0 583 122"><path fill="#fff" d="M172.864 65.116q-7.448 0-13.68-3.496t-9.88-9.652q-3.648-6.232-3.648-14.06 0-7.752 3.648-13.908 3.649-6.232 9.88-9.728t13.68-3.496q7.524 0 13.68 3.496 6.232 3.495 9.804 9.728 3.648 6.156 3.648 13.908 0 7.828-3.648 14.06-3.572 6.156-9.804 9.652-6.231 3.496-13.68 3.496m0-9.5q4.788 0 8.436-2.128 3.648-2.205 5.7-6.232t2.052-9.348T187 28.636q-2.052-4.027-5.7-6.156t-8.436-2.128-8.512 2.128q-3.648 2.128-5.7 6.156-2.052 3.952-2.052 9.272t2.052 9.348 5.7 6.232q3.724 2.128 8.512 2.128M246.596 27.952q0 4.255-2.052 7.98-1.976 3.724-6.308 6.004-4.256 2.28-10.792 2.28h-8.892v20.368h-10.64V11.536h19.532q6.156 0 10.488 2.128t6.46 5.852q2.204 3.724 2.204 8.436m-19.608 7.676q4.408 0 6.536-1.976 2.128-2.052 2.128-5.7 0-7.752-8.664-7.752h-8.436v15.428zM330.096 11.536v53.048h-10.64V30.08l-14.212 34.504h-8.056L282.9 30.08v34.504h-10.64V11.536h12.084l16.872 39.444 16.872-39.444zM337.879 43.38q0-6.383 2.508-11.324 2.584-4.94 6.916-7.6 4.409-2.66 9.804-2.66 4.713 0 8.208 1.9 3.573 1.9 5.7 4.788V22.48h10.716v42.104h-10.716v-6.156q-2.052 2.964-5.7 4.94-3.571 1.9-8.284 1.9-5.32 0-9.728-2.736-4.332-2.736-6.916-7.676-2.508-5.017-2.508-11.476m33.136.152q0-3.876-1.52-6.612-1.52-2.812-4.104-4.256a10.76 10.76 0 0 0-5.548-1.52q-2.964 0-5.472 1.444t-4.104 4.256q-1.52 2.736-1.52 6.536t1.52 6.688q1.596 2.813 4.104 4.332 2.584 1.52 5.472 1.52a11.2 11.2 0 0 0 5.548-1.444q2.584-1.52 4.104-4.256 1.52-2.812 1.52-6.688M397.519 17.464q-2.812 0-4.712-1.748-1.824-1.823-1.824-4.484t1.824-4.408Q394.707 5 397.519 5t4.636 1.824q1.9 1.748 1.9 4.408t-1.9 4.484q-1.824 1.748-4.636 1.748m5.244 5.016v42.104h-10.64V22.48zM436.607 21.872q7.524 0 12.16 4.788 4.636 4.712 4.636 13.224v24.7h-10.64V41.328q0-5.016-2.508-7.676-2.508-2.736-6.84-2.736-4.407 0-6.992 2.736-2.508 2.66-2.508 7.676v23.256h-10.64V22.48h10.64v5.244q2.129-2.736 5.396-4.256 3.345-1.596 7.296-1.596M486.854 21.872q7.524 0 12.159 4.788 4.637 4.712 4.637 13.224v24.7h-10.641V41.328q0-5.016-2.508-7.676-2.508-2.736-6.84-2.736-4.407 0-6.992 2.736-2.508 2.66-2.508 7.676v23.256h-10.639V22.48h10.639v5.244q2.129-2.736 5.396-4.256 3.345-1.596 7.297-1.596M552.908 42.62q0 2.28-.304 4.104h-30.78q.38 4.56 3.192 7.144 2.811 2.584 6.916 2.584 5.928 0 8.436-5.092h11.476q-1.824 6.08-6.992 10.032-5.168 3.876-12.692 3.876-6.081 0-10.944-2.66-4.788-2.736-7.524-7.676-2.66-4.94-2.66-11.4 0-6.536 2.66-11.476t7.448-7.6 11.02-2.66q6.003 0 10.716 2.584 4.788 2.584 7.372 7.372 2.66 4.712 2.66 10.868m-11.02-3.04q-.077-4.104-2.964-6.536-2.889-2.508-7.068-2.508-3.952 0-6.688 2.432-2.66 2.356-3.268 6.612zM573.062 31.22v20.368q0 2.128.988 3.116 1.064.912 3.496.912h4.94v8.968h-6.688q-13.452 0-13.452-13.072V31.22h-5.016v-8.74h5.016V12.068h10.716V22.48h9.424v8.74z"/><path fill="#cececf" d="M158.465 105.74h-8.122l-1.302 3.844h-5.549l7.874-21.762h6.138l7.874 21.762h-5.611zm-1.364-4.092-2.697-7.967-2.666 7.967zM182.218 109.801q-2.386 0-4.278-.775t-3.038-2.294q-1.116-1.52-1.178-3.658h5.642q.124 1.209.837 1.86.713.62 1.86.62 1.178 0 1.86-.527.682-.558.682-1.519 0-.806-.558-1.333-.527-.527-1.333-.868-.775-.341-2.232-.775-2.107-.651-3.441-1.302t-2.294-1.922q-.961-1.27-.961-3.317 0-3.038 2.201-4.743 2.2-1.736 5.735-1.736 3.596 0 5.797 1.736 2.201 1.705 2.356 4.774h-5.735q-.062-1.054-.775-1.643-.713-.62-1.829-.62-.961 0-1.55.527-.59.495-.589 1.457 0 1.054.992 1.643t3.1 1.271q2.108.713 3.41 1.364a6.5 6.5 0 0 1 2.294 1.891q.961 1.24.961 3.193 0 1.86-.961 3.379-.93 1.52-2.728 2.418t-4.247.899M192.362 100.935q0-2.697 1.085-4.712 1.116-2.015 3.069-3.1 1.985-1.085 4.526-1.085 3.256 0 5.425 1.705 2.202 1.705 2.883 4.805h-5.642q-.713-1.984-2.759-1.984-1.457 0-2.325 1.147-.868 1.116-.868 3.224t.868 3.255q.869 1.116 2.325 1.116 2.046 0 2.759-1.984h5.642q-.681 3.038-2.883 4.774-2.2 1.736-5.425 1.736-2.541 0-4.526-1.085-1.953-1.085-3.069-3.1-1.085-2.015-1.085-4.712M211.132 100.904q0-2.666.992-4.68 1.022-2.016 2.759-3.1 1.736-1.086 3.875-1.086 1.828 0 3.193.744 1.395.744 2.139 1.953v-2.449h5.301v17.298h-5.301v-2.449q-.775 1.209-2.17 1.953-1.365.744-3.193.744-2.109 0-3.844-1.085-1.737-1.116-2.759-3.131-.993-2.046-.992-4.712m12.958.031q0-1.984-1.116-3.13-1.085-1.149-2.666-1.148-1.581 0-2.697 1.147-1.085 1.116-1.085 3.1t1.085 3.162q1.116 1.147 2.697 1.147t2.666-1.147q1.116-1.147 1.116-3.131M243.766 92.1q3.038 0 4.836 1.984 1.829 1.953 1.829 5.394v10.106h-5.27v-9.393q0-1.735-.899-2.697-.9-.96-2.418-.96-1.52 0-2.418.96-.9.96-.899 2.697v9.393h-5.301V92.286h5.301v2.294q.805-1.147 2.17-1.798 1.363-.682 3.069-.682M270.976 109.801q-3.07 0-5.642-1.426a10.83 10.83 0 0 1-4.061-3.968q-1.488-2.573-1.488-5.766t1.488-5.735a10.83 10.83 0 0 1 4.061-3.968q2.573-1.426 5.642-1.426t5.611 1.426a10.34 10.34 0 0 1 4.03 3.968q1.488 2.542 1.488 5.735t-1.488 5.766a10.6 10.6 0 0 1-4.03 3.968q-2.542 1.426-5.611 1.426m0-4.836q2.603 0 4.154-1.736 1.581-1.736 1.581-4.588 0-2.883-1.581-4.588-1.55-1.736-4.154-1.736-2.635 0-4.216 1.705-1.55 1.705-1.55 4.62 0 2.882 1.55 4.618 1.58 1.705 4.216 1.705M290.355 95.17q.93-1.428 2.325-2.233 1.395-.837 3.1-.837v5.611h-1.457q-1.985 0-2.976.868-.992.837-.992 2.976v8.029h-5.301V92.286h5.301zM300.98 90.488q-1.395 0-2.294-.806a2.73 2.73 0 0 1-.868-2.046q0-1.24.868-2.046.899-.837 2.294-.837 1.364 0 2.232.837.899.806.899 2.046 0 1.209-.899 2.046-.868.806-2.232.806m2.635 1.798v17.298h-5.301V92.286zM314.028 92.038q1.83 0 3.193.744 1.395.744 2.139 1.953v-2.449h5.301v17.267q0 2.387-.961 4.309-.93 1.953-2.883 3.1-1.922 1.147-4.805 1.147-3.843 0-6.231-1.829-2.386-1.798-2.728-4.898h5.239q.248.992 1.178 1.55.93.59 2.294.589 1.644 0 2.604-.961.993-.93.992-3.007v-2.449q-.774 1.209-2.139 1.984-1.363.744-3.193.744-2.139 0-3.875-1.085-1.736-1.116-2.759-3.131-.992-2.046-.992-4.712t.992-4.68q1.023-2.016 2.759-3.1 1.736-1.086 3.875-1.086m5.332 8.897q0-1.984-1.116-3.13-1.085-1.149-2.666-1.148-1.581 0-2.697 1.147-1.085 1.116-1.085 3.1t1.085 3.162q1.116 1.147 2.697 1.147t2.666-1.147q1.116-1.147 1.116-3.131M331.162 90.488q-1.395 0-2.294-.806a2.74 2.74 0 0 1-.868-2.046q0-1.24.868-2.046.9-.837 2.294-.837 1.365 0 2.232.837.9.806.899 2.046 0 1.209-.899 2.046-.867.806-2.232.806m2.635 1.798v17.298h-5.301V92.286zM348.179 92.1q3.037 0 4.836 1.984 1.829 1.953 1.829 5.394v10.106h-5.27v-9.393q0-1.735-.899-2.697-.898-.96-2.418-.96t-2.418.96q-.899.96-.899 2.697v9.393h-5.301V92.286h5.301v2.294q.806-1.147 2.17-1.798 1.364-.682 3.069-.682M357.474 100.904q0-2.666.992-4.68 1.022-2.016 2.759-3.1 1.736-1.086 3.875-1.086 1.828 0 3.193.744 1.395.744 2.139 1.953v-2.449h5.301v17.298h-5.301v-2.449q-.775 1.209-2.17 1.953-1.365.744-3.193.744-2.109 0-3.844-1.085-1.737-1.116-2.759-3.131-.992-2.046-.992-4.712m12.958.031q0-1.984-1.116-3.13-1.086-1.149-2.666-1.148-1.581 0-2.697 1.147-1.085 1.116-1.085 3.1t1.085 3.162q1.116 1.147 2.697 1.147t2.666-1.147q1.116-1.147 1.116-3.131M384.869 86.644v22.94h-5.301v-22.94z"/><path fill="#fff" d="M25.223 57.583a5.143 5.143 0 0 1 5.168-5.143l8.568.028a5.15 5.15 0 0 1 5.15 5.151v32.4c.966-.286 2.2-.591 3.56-.911a4.29 4.29 0 0 0 3.309-4.177V44.744a5.15 5.15 0 0 1 5.15-5.152h8.595a5.15 5.15 0 0 1 5.15 5.152v37.3s2.15-.87 4.244-1.754a4.3 4.3 0 0 0 2.625-3.957V31.866a5.15 5.15 0 0 1 5.15-5.151h8.585a5.15 5.15 0 0 1 5.146 5.151v36.617c7.443-5.394 14.986-11.882 20.972-19.683a8.652 8.652 0 0 0 1.316-8.072 60.64 60.64 0 0 0-33.43-35.843A60.636 60.636 0 0 0 8.056 90.836a7.67 7.67 0 0 0 7.316 3.79c1.624-.143 3.646-.345 6.05-.627a4.29 4.29 0 0 0 3.805-4.258V57.583"/><path fill="#ff0823" d="M25.04 109.544a60.65 60.65 0 0 0 63.208 5.001 60.65 60.65 0 0 0 33.13-54.062c0-1.4-.065-2.778-.158-4.152-22.163 33.055-63.085 48.508-96.18 53.213"/></svg>
